X:2625
T:Captain Kennedy
R:strathspey
C:Scottish,traditional
0:Cape Breton pipe setting
S:Silver Apple News,1992
B:Gathering of the Clan's Collection, Barry Shears
N:Contacts ...
N:..... Cranford Publications <http://www.cranfordpub.com>
Z:This abc transcription is for personal use only, 
Z:provided this notice remains attached.
Z:Paul Stewart Cranford <psc@cranfordpub.com>
L:1/8
Q:288
M:C
K:Amix
c|A/B/c/d/ e>A f>Ae>A|a>fe>c d<BB>c|A/B/c/d/ e>A f>Ae>A|d>B c/d/e/d/ c<AA:|!
|:c|A/B/c/d/ e>a f>ae>a|d>ac>a f<BB<c|A/B/c/d/ e>a f>ae>a|d>Be>d c<AA:|!


